src/assets/images/tech/github.svg

<svg width="32" height="32" viewBox="0 0 32 32" fill="none" xmlns="http://www.w3.org/2000/svg">
<g id="github">
<g id="github_2">
<path id="Vector" d="M16.0001 0C7.16461 0 0 7.34466 0 16.405C0 23.6533 4.5845 29.8026 10.9419 31.9718C11.7415 32.1236 12.0351 31.6159 12.0351 31.1826C12.0351 30.7915 12.0202 29.4991 12.0134 28.1283C7.56202 29.1207 6.62276 26.1927 6.62276 26.1927C5.89494 24.2965 4.84626 23.7924 4.84626 23.7924C3.39464 22.7742 4.95568 22.795 4.95568 22.795C6.5624 22.9108 7.40843 24.4856 7.40843 24.4856C8.83545 26.9936 11.1514 26.2685 12.0645 25.8495C12.208 24.789 12.6227 24.0654 13.0803 23.6558C9.5265 23.2408 5.79054 21.8342 5.79054 15.5483C5.79054 13.7573 6.41559 12.2938 7.43917 11.1449C7.27303 10.7317 6.72541 9.0632 7.59415 6.80351C7.59415 6.80351 8.93772 6.36259 11.9953 8.48512C13.2715 8.12152 14.6403 7.93934 16.0001 7.93316C17.3598 7.93934 18.7296 8.12152 20.0083 8.48512C23.0623 6.36259 24.404 6.80351 24.404 6.80351C25.2748 9.0632 24.727 10.7317 24.5608 11.1449C25.5867 12.2938 26.2075 13.7572 26.2075 15.5483C26.2075 21.8491 22.4645 23.2366 18.9017 23.6426C19.4755 24.1518 19.9869 25.1502 19.9869 26.6806C19.9869 28.8756 19.9683 30.6422 19.9683 31.1826C19.9683 31.6192 20.2563 32.1307 21.0674 31.9696C27.4213 29.798 32 23.6509 32 16.405C32 7.34466 24.8364 0 16.0001 0Z" fill="#161614"/>
<path id="Vector_2" d="M5.99299 23.37C5.95786 23.4514 5.83262 23.4759 5.71881 23.42C5.60273 23.3665 5.53748 23.2553 5.57513 23.1735C5.60963 23.0896 5.73487 23.0662 5.85069 23.1226C5.96702 23.176 6.03328 23.2882 5.99299 23.37ZM6.78004 24.09C6.70375 24.1625 6.55454 24.1288 6.45328 24.0142C6.34862 23.8998 6.32905 23.747 6.40647 23.6732C6.48515 23.6008 6.62984 23.6346 6.73474 23.7491C6.8394 23.8648 6.85973 24.0168 6.77992 24.0901L6.78004 24.09ZM7.32001 25.0112C7.22188 25.0811 7.06151 25.0156 6.9625 24.8697C6.86449 24.7239 6.86449 24.5489 6.96463 24.4788C7.06402 24.4087 7.22188 24.4717 7.32227 24.6165C7.42015 24.7648 7.42015 24.9398 7.31988 25.0113L7.32001 25.0112ZM8.23305 26.0782C8.14533 26.1773 7.95861 26.1508 7.82183 26.0154C7.68204 25.8831 7.64301 25.6954 7.73098 25.5962C7.81969 25.4969 8.00755 25.5248 8.14533 25.659C8.28424 25.791 8.32666 25.9801 8.23317 26.0782H8.23305ZM9.41312 26.4384C9.37459 26.5668 9.19464 26.6253 9.01344 26.5707C8.83249 26.5145 8.71403 26.3639 8.75055 26.2341C8.7882 26.1048 8.96889 26.044 9.15148 26.1024C9.33218 26.1583 9.45089 26.3077 9.41324 26.4384H9.41312ZM10.7563 26.5912C10.7608 26.7265 10.6071 26.8387 10.4169 26.8412C10.2255 26.8454 10.0708 26.7359 10.0688 26.6029C10.0688 26.4662 10.219 26.3551 10.4102 26.3519C10.6005 26.348 10.7563 26.4567 10.7563 26.5912ZM12.0757 26.5393C12.0985 26.6713 11.9663 26.8069 11.7774 26.843C11.5917 26.8777 11.4198 26.7962 11.396 26.6654C11.373 26.53 11.5077 26.3946 11.6931 26.3594C11.8823 26.3257 12.0516 26.4051 12.0757 26.5393Z" fill="#161614"/>
</g>
</g>
</svg>

<svg xmlns="http://www.w3.org/2000/svg" width="32" height="32" fill="none"><g fill="#161614"><path d="M16 0C7.165 0 0 7.345 0 16.405c0 7.248 4.585 13.398 10.942 15.567.8.152 1.093-.356 1.093-.79 0-.39-.015-1.683-.022-3.054-4.451.993-5.39-1.935-5.39-1.935-.728-1.896-1.777-2.4-1.777-2.4-1.451-1.019.11-.998.11-.998 1.606.116 2.452 1.69 2.452 1.69 1.427 2.509 3.743 1.784 4.657 1.364.143-1.06.558-1.784 1.015-2.193-3.553-.415-7.29-1.822-7.29-8.108 0-1.79.626-3.254 1.65-4.403-.167-.413-.715-2.082.154-4.341 0 0 1.344-.441 4.401 1.681A15 15 0 0 1 16 7.933c1.36.006 2.73.189 4.008.552 3.054-2.122 4.396-1.681 4.396-1.681.87 2.26.323 3.928.157 4.34 1.026 1.15 1.646 2.613 1.646 4.404 0 6.301-3.742 7.689-7.305 8.095.573.509 1.085 1.507 1.085 3.038 0 2.195-.019 3.961-.019 4.502 0 .436.288.948 1.1.787C27.42 29.798 32 23.65 32 16.405 32 7.345 24.836 0 16 0"/><path d="M5.993 23.37c-.035.081-.16.106-.274.05-.116-.054-.182-.165-.144-.247.035-.083.16-.107.276-.05.116.053.182.165.142.247m.787.72c-.076.073-.225.039-.327-.076-.104-.114-.124-.267-.047-.34.08-.073.224-.04.329.075.104.116.125.268.045.341m.54.921c-.098.07-.258.005-.357-.141s-.099-.321.002-.391c.099-.07.257-.007.357.137.098.149.098.324-.002.395m.913 1.067c-.088.1-.274.073-.411-.063-.14-.132-.179-.32-.091-.419.089-.1.277-.071.414.063.14.132.182.321.088.42m1.18.36c-.038.129-.218.187-.4.133-.18-.056-.299-.207-.262-.337s.218-.19.4-.132c.181.056.3.206.262.336m1.343.153c.005.136-.149.248-.34.25-.19.004-.345-.105-.347-.238 0-.137.15-.248.341-.251.19-.004.346.105.346.24m1.32-.052c.022.132-.11.268-.299.304-.185.035-.357-.047-.381-.178-.023-.135.112-.27.297-.306.19-.033.359.046.383.18"/></g></svg>
